X:1
T:The Illumination 9th Feb 1781
T:The Illumination 9th Feb 1781
T:William Marshall
C:William Marshall
L:1/8
Q:1/2=104
M:2/2
K:G
V:1 treble 
V:1
 Tg2 (bg) afge | g2 (bg) af g2 | Tg2 bg afge | =fdcf AFcA :| (B/c/d) (BG) ecdc | %5
 (B/c/d) (BG) gB d2 | (B/c/d) (BG) ecdc | cAFA =fA c2 :| %8

